app/dist/common/images/robert-half-international.svg

<svg height="18" width="18" xmlns="http://www.w3.org/2000/svg"><path d="m0 0h18v18h-18z" fill="#9f1c35"/><path d="m7.668 8.495c-.095-.012-.096-.02-.225-.02-.604 0-.943.355-.943 1.055v2.47h-1.495v-5h1.495v.503a1.603 1.603 0 0 1 1.168-.517v1.51zm2.33-3.495v2.506a1.395 1.395 0 0 1 1.12-.538c1.161 0 1.882.688 1.882 2.04v2.992h-1.5v-2.923c0-.37-.192-.81-.729-.81-.479 0-.773.34-.773.933v2.8h-1.498v-7h-5.5v8h12v-8z" fill="#fff"/></svg>

<!-- by TradingView --><svg width="18" height="18" xmlns="http://www.w3.org/2000/svg"><path fill="#9F1C35" d="M0 0h18v18H0z"/><path d="M7.668 8.495c-.095-.012-.096-.02-.225-.02-.604 0-.943.355-.943 1.055V12H5.005V7H6.5v.503a1.603 1.603 0 011.168-.517v1.51zM9.998 5v2.506a1.395 1.395 0 011.12-.538c1.161 0 1.882.688 1.882 2.04V12h-1.5V9.077c0-.37-.192-.81-.729-.81-.479 0-.773.34-.773.933V12H8.5V5H3v8h12V5H9.998z" fill="#fff"/></svg>
